material/.icons/material/gate-xor.svg

<svg xmlns="http://www.w3.org/2000/svg" viewBox="0 0 24 24"><path d="M2 4c3 6 3 10 0 16h2c3-6 3-10 .1-16H2m4 0c3 6 3 10 0 16h3c5 0 9-3 13-8-4-5-8-8-13-8H6m3 2c3.8 0 7 2.1 10.3 6-3.4 3.9-6.5 6-10.3 6 1.5-4 1.5-8 0-12z"/></svg>

<?xml version="1.0" encoding="UTF-8"?><!DOCTYPE svg PUBLIC "-//W3C//DTD SVG 1.1//EN" "http://www.w3.org/Graphics/SVG/1.1/DTD/svg11.dtd"><svg xmlns="http://www.w3.org/2000/svg" xmlns:xlink="http://www.w3.org/1999/xlink" version="1.1" id="mdi-gate-xor" width="24" height="24" viewBox="0 0 24 24"><path d="M2,4C5,10 5,14 2,20H4C7,14 7,10 4.1,4H2M6,4C9,10 9,14 6,20H9C14,20 18,17 22,12C18,7 14,4 9,4H6M9,6C12.8,6 16,8.1 19.3,12C15.9,15.9 12.8,18 9,18C10.5,14 10.5,10 9,6Z" /></svg>
